X: 3302
T: Bell Rock, The
R: jig
M: 6/8
K: Dmajor
|:A|dcd fed|dcB ~A3|Bgg Aff|efd cee|
dcd fed|dcB ~A3|Bgg aff|edc d2:|
|:f|f<ad dcd|BGG e2d|cAA g2f|efd cee|
[1 a2d dcd|BGG e2d|cAA g2f|edc d2:|
[2 dff egg|dff ecA|~f3 gec|Adc d2||

